app/component-library/components/Icons/Icon/assets/swap-horizontal.svg

<svg width="24" height="24" viewBox="0 0 24 24" fill="none" xmlns="http://www.w3.org/2000/svg">
<path d="M17.5605 11.1997C17.3705 11.1997 17.1805 11.1297 17.0305 10.9797C16.7405 10.6897 16.7405 10.2097 17.0305 9.91971L20.2205 6.72971L17.0305 3.5397C16.7405 3.2497 16.7405 2.76971 17.0305 2.47971C17.3205 2.18971 17.8005 2.18971 18.0905 2.47971L21.8105 6.19974C21.9505 6.33974 22.0305 6.52971 22.0305 6.72971C22.0305 6.92971 21.9505 7.11974 21.8105 7.25974L18.0905 10.9797C17.9405 11.1197 17.7505 11.1997 17.5605 11.1997Z" fill="currentColor"/>
<path d="M21.2808 7.47998H3.28076C2.87076 7.47998 2.53076 7.13998 2.53076 6.72998C2.53076 6.31998 2.87076 5.97998 3.28076 5.97998H21.2808C21.6908 5.97998 22.0305 6.31971 22.0305 6.72971C22.0305 7.13971 21.6908 7.47998 21.2808 7.47998Z" fill="currentColor"/>
<path d="M7.00073 21.75C6.81073 21.75 6.62076 21.68 6.47076 21.53L2.75073 17.81C2.61073 17.67 2.53076 17.48 2.53076 17.28C2.53076 17.08 2.61073 16.89 2.75073 16.75L6.47076 13.03C6.76076 12.74 7.24076 12.74 7.53076 13.03C7.82076 13.32 7.82076 13.8 7.53076 14.09L4.34076 17.28L7.53076 20.4699C7.82076 20.7599 7.82076 21.24 7.53076 21.53C7.39076 21.68 7.20073 21.75 7.00073 21.75Z" fill="currentColor"/>
<path d="M21.2808 18.02H3.28076C2.87076 18.02 2.53076 17.68 2.53076 17.27C2.53076 16.86 2.87076 16.52 3.28076 16.52H21.2808C21.6908 16.52 22.0308 16.86 22.0308 17.27C22.0308 17.68 21.6908 18.02 21.2808 18.02Z" fill="currentColor"/>
</svg>

<svg xmlns="http://www.w3.org/2000/svg" width="24" height="24" viewBox="0 0 24 24" fill="none"><path fill="currentColor" d="M17.56 11.2c-.19 0-.38-.07-.53-.22a.754.754 0 0 1 0-1.06l3.19-3.19-3.19-3.19a.754.754 0 0 1 0-1.06c.29-.29.77-.29 1.06 0l3.72 3.72a.75.75 0 0 1 0 1.06l-3.72 3.72c-.15.14-.34.22-.53.22Z"/><path fill="currentColor" d="M21.28 7.48h-18c-.41 0-.75-.34-.75-.75s.34-.75.75-.75h18c.41 0 .75.34.75.75s-.34.75-.75.75ZM7 21.75c-.19 0-.38-.07-.53-.22l-3.72-3.72a.75.75 0 0 1 0-1.06l3.72-3.72c.29-.29.77-.29 1.06 0 .29.29.29.77 0 1.06l-3.19 3.19 3.19 3.19c.29.29.29.77 0 1.06a.71.71 0 0 1-.53.22Z"/><path fill="currentColor" d="M21.28 18.02h-18c-.41 0-.75-.34-.75-.75s.34-.75.75-.75h18c.41 0 .75.34.75.75s-.34.75-.75.75Z"/></svg>
